docs/media/illustrations/vacant-duo.svg

<?xml version="1.0" encoding="UTF-8"?>
<svg version="1.1" viewBox="0 0 100 100" xmlns="http://www.w3.org/2000/svg" xmlns:xlink="http://www.w3.org/1999/xlink">
    <!--Generated by IJSVG (https://github.com/iconjar/IJSVG)-->
    <defs>
        <path d="M169.436,136.513h-9.21281l-0.960764,-4.31686c-0.089371,-0.395708 0.008739,-0.810519 0.265908,-1.12427c0.257168,-0.313746 0.644655,-0.491363 1.05021,-0.481396h8.55475c0.405552,-0.009967 0.793039,0.16765 1.05021,0.481396c0.257169,0.313746 0.355278,0.728557 0.265908,1.12427l-1.01341,4.31686Z" id="b"></path>
        <path d="M174.951,112.84h28.8098v16.0809h-28.8098Z" id="a"></path>
    </defs>
    <g transform="matrix(1,0,0,1,-136,-56)">
        <path fill="#F6F5FA" stroke="none" d="M230.724,110.545c-0.001703,-18.1917 -11.0651,-34.5545 -27.9466,-41.3332c-16.8815,-6.77871 -36.1888,-2.61114 -48.7711,10.5275c-12.5823,13.1386 -15.9111,32.608 -8.40869,49.1807h81.1507c2.62625,-5.76947 3.98208,-12.0359 3.97568,-18.375Z"></path>
        <path fill="none" fill-rule="evenodd" stroke="#735BCC" stroke-linecap="round" stroke-linejoin="round" stroke-width="1" d="M142.746,128.92h86.8636"></path>
        <path fill="none" fill-rule="evenodd" stroke="#735BCC" stroke-linecap="round" stroke-linejoin="round" stroke-width="1" d="M137.735,128.92h2.78409"></path>
        <path fill="none" fill-rule="evenodd" stroke="#735BCC" stroke-linecap="round" stroke-linejoin="round" stroke-width="1" d="M231.837,128.92h2.78409"></path>
        <path fill="#FFF" stroke="#735BCC" stroke-linejoin="round" stroke-width="1" d="M201.745,128.92h2.68386l2.00455,-8.70864h-2.67273Z"></path>
        <path fill="#BEB4EE" stroke="#735BCC" stroke-linejoin="round" stroke-width="1" d="M172.599,112.84c-0.55228,0 -1,-0.44772 -1,-1v-1.35205c0,-0.55228 0.44772,-1 1,-1h33.5139c0.55228,0 1,0.44772 1,1v1.35205c0,0.55228 -0.44772,1 -1,1Z"></path>
        <use fill="#E5E1F8" stroke="none" xlink:href="#a"></use>
        <use fill="none" fill-rule="evenodd" stroke="#735BCC" stroke-linejoin="round" stroke-width="1" xlink:href="#a"></use>
        <path fill="#E5E1F8" stroke="#735BCC" stroke-linejoin="round" stroke-width="1" d="M217.77,105.356l-2.58364,2.22727c-0.876366,0.762731 -1.37992,1.86729 -1.38091,3.02909v5.56818c0,0.738053 -0.598311,1.33636 -1.33636,1.33636h-8.70864v2.684l8.70864,-0.000139c1.07008,0.008897 2.09955,-0.409202 2.86041,-1.1617c0.760856,-0.752495 1.1903,-1.77728 1.19323,-2.84739v-4.15386c0.002916,-1.19169 0.532932,-2.32104 1.44773,-3.08477l1.69273,-1.41432c0.514074,-0.426493 0.666368,-1.15104 0.3675,-1.74841c-0.197809,-0.407751 -0.576427,-0.698253 -1.02149,-0.783757c-0.44506,-0.085505 -0.904372,0.044016 -1.23919,0.349439Z"></path>
        <path fill="#FFF" stroke="#735BCC" stroke-linejoin="round" stroke-width="1" d="M215.153,128.92h-2.68386l-2.01568,-8.70864h2.68386Z"></path>
        <path fill="#FFF" stroke="#735BCC" stroke-linejoin="round" stroke-width="1" d="M185.218,106.091h5.56818c1.23009,0 2.22727,0.997184 2.22727,2.22727v1.11364h-10.0227v-1.11364c0,-1.23009 0.997184,-2.22727 2.22727,-2.22727Z"></path>
        <path fill="none" fill-rule="evenodd" stroke="#735BCC" stroke-linejoin="round" stroke-width="1" d="M188.348,106.091l0.623637,-2.79523c0.436653,-1.98227 1.96048,-3.54495 3.93114,-4.03136l4.82205,-1.21386"></path>
        <path fill="#E5E1F8" stroke="#735BCC" stroke-linejoin="round" stroke-width="1" d="M203.092,98.6407l-4.58818,0.991136c-0.438884,0.102792 -0.900662,0.0250792 -1.28172,-0.215702c-0.381063,-0.240782 -0.649504,-0.624471 -0.745093,-1.06498c-0.193188,-0.903458 0.378671,-1.79357 1.28068,-1.99341l4.58818,-0.991136c0.43271,-0.0961803 0.885905,-0.0164318 1.25979,0.221684c0.373884,0.238116 0.637796,0.615073 0.73362,1.04786c0.195712,0.895701 -0.35726,1.78441 -1.24727,2.00455Z"></path>
        <path fill="#BEB4EE" stroke="#735BCC" stroke-width="1" d="M165.632,127.511l3.94835,-2.56642l1.17134,-5.84355c0.07156,-0.31373 -0.104136,-0.631116 -0.407996,-0.737025c-0.077886,-0.018472 -0.159014,-0.018472 -0.236901,0c-0.229701,0.003632 -0.442257,0.122268 -0.565929,0.315868l-4.61957,7.64663l0.710702,1.1845Z"></path>
        <path fill="#BEB4EE" stroke="#735BCC" stroke-linecap="round" stroke-linejoin="round" stroke-width="1" d="M160.223,124.945l6.40948,4.18525l-6.34368,-10.5289c-0.121946,-0.195422 -0.335584,-0.314662 -0.565929,-0.315868c-0.077887,-0.018472 -0.159015,-0.018472 -0.236901,0c-0.30386,0.105909 -0.479556,0.423295 -0.407996,0.737025l1.14502,5.92252Z"></path>
        <path fill="#E5E1F8" stroke="#735BCC" stroke-linecap="round" stroke-linejoin="round" stroke-width="1" d="M171.292,124.392c-0.120919,-0.103421 -0.275213,-0.159528 -0.434319,-0.157934c-0.125777,0.002411 -0.248562,0.038792 -0.355351,0.10529l-9.59448,6.25155h7.89669l2.63223,-5.40924c0.136495,-0.265583 0.077059,-0.58978 -0.144772,-0.78967Z"></path>
        <path fill="#E5E1F8" stroke="#735BCC" stroke-width="1" d="M164.882,126.274l1.98734,-3.29029l-1.38192,-6.34368c-0.061511,-0.301651 -0.323938,-0.52034 -0.631735,-0.526447c-0.303264,0.001877 -0.567599,0.206871 -0.644897,0.500124l-1.48721,6.08046l2.15843,3.57984Z"></path>
        <path fill="#E5E1F8" stroke="#735BCC" stroke-linecap="round" stroke-linejoin="round" stroke-width="1" d="M168.857,130.591l-9.59448,-6.25155c-0.106789,-0.066498 -0.229574,-0.102879 -0.355351,-0.10529c-0.159106,-0.001594 -0.3134,0.054513 -0.434318,0.157934c-0.226362,0.196526 -0.291296,0.521199 -0.157934,0.78967l2.63223,5.40924h7.90986Z"></path>
        <use fill="#FFF" stroke="none" xlink:href="#b"></use>
        <use fill="none" fill-rule="evenodd" stroke="#735BCC" stroke-linejoin="round" stroke-width="1" xlink:href="#b"></use>
        <path fill="#FFF" stroke="#735BCC" stroke-linejoin="round" stroke-width="1" d="M160.223,136.513h9.21281v2.63223h-9.21281Z"></path>
    </g>
</svg>

<?xml version="1.0" encoding="UTF-8"?>
<svg width="100px" height="100px" viewBox="0 0 100 100" version="1.1" xmlns="http://www.w3.org/2000/svg" xmlns:xlink="http://www.w3.org/1999/xlink">
    <!-- Generator: Sketch Beta 51 (57462) - http://www.bohemiancoding.com/sketch -->
    <title>Slice 2 Copy</title>
    <desc>Created with Sketch Beta.</desc>
    <defs></defs>
    <g id="Biings-3" stroke="none" stroke-width="1" fill="none" fill-rule="evenodd">
        <g id="Illustrations" transform="translate(-136.000000, -56.000000)">
            <path d="M230.723636,110.545455 C230.721933,92.3537709 219.658564,75.9909968 202.777024,69.2122831 C185.895484,62.4335694 166.588237,66.6011463 154.005968,79.7397872 C141.4237,92.8784281 138.094907,112.347831 145.597273,128.920455 L226.747955,128.920455 C229.374201,123.150981 230.730032,116.884536 230.723636,110.545455 Z" id="Shape" fill="#F6F5FA" fill-rule="nonzero"></path>
            <path d="M142.746364,128.920455 L229.61,128.920455" id="Shape" stroke="#735BCC" stroke-linecap="round" stroke-linejoin="round"></path>
            <path d="M137.735,128.920455 L140.519091,128.920455" id="Shape" stroke="#735BCC" stroke-linecap="round" stroke-linejoin="round"></path>
            <path d="M231.837273,128.920455 L234.621364,128.920455" id="Shape" stroke="#735BCC" stroke-linecap="round" stroke-linejoin="round"></path>
            <polygon id="Shape" stroke="#735BCC" fill="#FFFFFF" fill-rule="nonzero" stroke-linejoin="round" points="201.744773 128.920455 204.428636 128.920455 206.433182 120.211818 203.760455 120.211818"></polygon>
            <rect id="Rectangle-path" stroke="#735BCC" fill="#BEB4EE" fill-rule="nonzero" stroke-linejoin="round" x="171.598636" y="109.4875" width="35.5138636" height="3.35204545" rx="1"></rect>
            <rect id="Rectangle-path" fill="#E5E1F8" fill-rule="nonzero" x="174.950682" y="112.839545" width="28.8097727" height="16.0809091"></rect>
            <rect id="Rectangle-path" stroke="#735BCC" stroke-linejoin="round" x="174.950682" y="112.839545" width="28.8097727" height="16.0809091"></rect>
            <path d="M217.77,105.355909 L215.186364,107.583182 C214.309998,108.345913 213.806448,109.450475 213.805455,110.612273 L213.805455,116.180455 C213.805455,116.918508 213.207144,117.516818 212.469091,117.516818 L203.760455,117.516818 L203.760455,120.200821 L212.469091,120.200682 C213.539171,120.209579 214.56864,119.79148 215.329496,119.038986 C216.090352,118.286491 216.5198,117.261704 216.522727,116.191591 L216.522727,112.037727 C216.525643,110.846033 217.055659,109.716691 217.970455,108.952955 L219.663182,107.538636 C220.177256,107.112143 220.32955,106.387594 220.030682,105.790227 C219.832873,105.382476 219.454255,105.091974 219.009195,105.00647 C218.564135,104.920965 218.104823,105.050486 217.77,105.355909 Z" id="Shape" stroke="#735BCC" fill="#E5E1F8" fill-rule="nonzero" stroke-linejoin="round"></path>
            <polygon id="Shape" stroke="#735BCC" fill="#FFFFFF" fill-rule="nonzero" stroke-linejoin="round" points="215.152955 128.920455 212.469091 128.920455 210.453409 120.211818 213.137273 120.211818"></polygon>
            <path d="M185.218409,106.090909 L190.786591,106.090909 C192.01668,106.090909 193.013864,107.088093 193.013864,108.318182 L193.013864,109.431818 L182.991136,109.431818 L182.991136,108.318182 C182.991136,107.088093 183.98832,106.090909 185.218409,106.090909 Z" id="Shape" stroke="#735BCC" fill="#FFFFFF" fill-rule="nonzero" stroke-linejoin="round"></path>
            <path d="M188.347727,106.090909 L188.971364,103.295682 C189.408017,101.313409 190.931846,99.7507288 192.9025,99.2643182 L197.724545,98.0504545" id="Shape" stroke="#735BCC" stroke-linejoin="round"></path>
            <path d="M203.092273,98.6406818 L198.504091,99.6318182 C198.065207,99.7346104 197.603429,99.6568974 197.222366,99.4161157 C196.841303,99.1753341 196.572862,98.7916448 196.477273,98.3511364 C196.284085,97.4476783 196.855944,96.5575666 197.757955,96.3577273 L202.346136,95.3665909 C202.778846,95.2704106 203.232041,95.3501591 203.605925,95.588275 C203.979809,95.826391 204.243721,96.2033477 204.339545,96.6361364 C204.535257,97.5318373 203.982285,98.4205422 203.092273,98.6406818 Z" id="Shape" stroke="#735BCC" fill="#E5E1F8" fill-rule="nonzero" stroke-linejoin="round"></path>
            <path d="M165.632376,127.511198 L169.580723,124.944773 L170.752066,119.101219 C170.823626,118.787489 170.64793,118.470103 170.34407,118.364194 C170.266184,118.345722 170.185056,118.345722 170.107169,118.364194 C169.877468,118.367826 169.664912,118.486462 169.54124,118.680062 L164.921674,126.326694 L165.632376,127.511198 Z" id="Shape" stroke="#735BCC" fill="#BEB4EE" fill-rule="nonzero"></path>
            <path d="M160.22314,124.944773 L166.632624,129.130021 L160.288946,118.601095 C160.167,118.405673 159.953362,118.286433 159.723017,118.285227 C159.64513,118.266755 159.564002,118.266755 159.486116,118.285227 C159.182256,118.391136 159.00656,118.708522 159.07812,119.022252 L160.22314,124.944773 Z" id="Shape" stroke="#735BCC" fill="#BEB4EE" fill-rule="nonzero" stroke-linecap="round" stroke-linejoin="round"></path>
            <path d="M171.291674,124.392004 C171.170755,124.288583 171.016461,124.232476 170.857355,124.23407 C170.731578,124.236481 170.608793,124.272862 170.502004,124.33936 L160.907521,130.590909 L168.804215,130.590909 L171.436446,125.181674 C171.572941,124.916091 171.513505,124.591894 171.291674,124.392004 Z" id="Shape" stroke="#735BCC" fill="#E5E1F8" fill-rule="nonzero" stroke-linecap="round" stroke-linejoin="round"></path>
            <path d="M164.88219,126.27405 L166.869525,122.98376 L165.487603,116.640083 C165.426092,116.338432 165.163665,116.119743 164.855868,116.113636 C164.552604,116.115513 164.288269,116.320507 164.210971,116.61376 L162.72376,122.694215 L164.88219,126.27405 Z" id="Shape" stroke="#735BCC" fill="#E5E1F8" fill-rule="nonzero"></path>
            <path d="M168.85686,130.590909 L159.262376,124.33936 C159.155587,124.272862 159.032802,124.236481 158.907025,124.23407 C158.747919,124.232476 158.593625,124.288583 158.472707,124.392004 C158.246345,124.58853 158.181411,124.913203 158.314773,125.181674 L160.947004,130.590909 L168.85686,130.590909 Z" id="Shape" stroke="#735BCC" fill="#E5E1F8" fill-rule="nonzero" stroke-linecap="round" stroke-linejoin="round"></path>
            <path d="M169.43595,136.51343 L160.22314,136.51343 L159.262376,132.19657 C159.173005,131.800862 159.271115,131.386051 159.528284,131.072305 C159.785452,130.758559 160.172939,130.580942 160.578492,130.590909 L169.133244,130.590909 C169.538796,130.580942 169.926283,130.758559 170.183452,131.072305 C170.440621,131.386051 170.53873,131.800862 170.44936,132.19657 L169.43595,136.51343 Z" id="Shape" fill="#FFFFFF" fill-rule="nonzero"></path>
            <path d="M169.43595,136.51343 L160.22314,136.51343 L159.262376,132.19657 C159.173005,131.800862 159.271115,131.386051 159.528284,131.072305 C159.785452,130.758559 160.172939,130.580942 160.578492,130.590909 L169.133244,130.590909 C169.538796,130.580942 169.926283,130.758559 170.183452,131.072305 C170.440621,131.386051 170.53873,131.800862 170.44936,132.19657 L169.43595,136.51343 Z" id="Shape" stroke="#735BCC" stroke-linejoin="round"></path>
            <rect id="Rectangle-path" stroke="#735BCC" fill="#FFFFFF" fill-rule="nonzero" stroke-linejoin="round" x="160.22314" y="136.51343" width="9.21280992" height="2.6322314"></rect>
        </g>
    </g>
</svg>
